ckanext/cob_theme/public/img/boston_logo.svg

<?xml version="1.0" encoding="UTF-8" standalone="no"?>
<svg width="179px" height="24px" viewBox="0 0 179 24" version="1.1" xmlns="http://www.w3.org/2000/svg" xmlns:xlink="http://www.w3.org/1999/xlink" xmlns:sketch="http://www.bohemiancoding.com/sketch/ns">
    <!-- Generator: Sketch 3.3.3 (12072) - http://www.bohemiancoding.com/sketch -->
    <title>logo</title>
    <desc>Created with Sketch.</desc>
    <defs></defs>
    <g id="Page-1" stroke="none" stroke-width="1" fill="none" fill-rule="evenodd" sketch:type="MSPage">
        <g id="TOPIC-WINTER" sketch:type="MSArtboardGroup" transform="translate(-89.000000, -23.000000)">
            <g id="TOP-NAV" sketch:type="MSLayerGroup">
                <g id="logo" transform="translate(89.000000, 23.000000)" sketch:type="MSShapeGroup">
                    <path d="M8.51428942,13.3266667 C10.2435158,13.3266667 11.6565863,12.64 12.7544972,11.2666667 L15.0097644,13.598 C13.2204286,15.6206667 11.111616,16.6316667 8.68365863,16.6316667 C6.2553692,16.6316667 4.25548423,15.8616667 2.6846679,14.3226667 C1.11351948,12.7833333 0.328111317,10.8403333 0.328111317,8.49366667 C0.328111317,6.14733333 1.12846382,4.189 2.72983302,2.61933333 C4.33120223,1.05 6.28924304,0.265333333 8.60461967,0.265333333 C11.1906549,0.265333333 13.3555918,1.254 15.1000946,3.23066667 L12.9119109,5.72066667 C11.7997199,4.33233333 10.4162059,3.63833333 8.76269759,3.63833333 C7.43962523,3.63833333 6.30784045,4.072 5.36867161,4.93966667 C4.42883859,5.80766667 3.95925417,6.977 3.95925417,8.44833333 C3.95925417,9.91966667 4.40227087,11.1006667 5.28963265,11.991 C6.17666234,12.8816667 7.25165863,13.3266667 8.51428942,13.3266667" id="Fill-1" fill="#091F2F"></path>
                    <path d="M17.6891187,0.627333333 L21.2073488,0.627333333 L21.2073488,16.4503333 L17.6891187,16.4503333 L17.6891187,0.627333333 Z" id="Fill-2" fill="#091F2F"></path>
                    <path d="M31.5358813,3.68333333 L31.5358813,16.4503333 L28.0176512,16.4503333 L28.0176512,3.68333333 L23.552282,3.68333333 L23.552282,0.627333333 L36.0012505,0.627333333 L36.0012505,3.68333333 L31.5358813,3.68333333" id="Fill-3" fill="#091F2F"></path>
                    <path d="M46.3321076,16.4503333 L42.8138776,16.4503333 L42.8138776,10.2026667 L37.3562041,0.627333333 L41.1676753,0.627333333 L44.5729926,6.513 L47.9786419,0.627333333 L51.7897811,0.627333333 L46.3321076,10.2026667 L46.3321076,16.4503333" id="Fill-4" fill="#091F2F"></path>
                    <path d="M68.0449072,7.95366667 C68.0449072,9.00566667 67.8556122,9.96266667 67.4770223,10.8243333 C67.0984323,11.6863333 66.5780371,12.3473333 65.9165009,12.8083333 C65.2552968,13.269 64.4941317,13.4996667 63.6326735,13.4996667 C62.6367161,13.4996667 61.8456623,13.2016667 61.2595121,12.605 C60.6730297,12.009 60.3797885,11.198 60.3797885,10.172 C60.3797885,9.136 60.5654304,8.18566667 60.9363822,7.321 C61.307334,6.457 61.827397,5.784 62.4965714,5.302 C63.1657458,4.82033333 63.9388664,4.57966667 64.8159332,4.57966667 C65.827167,4.57966667 66.6182208,4.88166667 67.1890946,5.48566667 C67.7599685,6.08966667 68.0449072,6.91233333 68.0449072,7.95366667 L68.0449072,7.95366667 Z M66.2007755,7.87566667 C66.2007755,7.31866667 66.0735826,6.88266667 65.8191967,6.56733333 C65.565475,6.25233333 65.2021614,6.095 64.7302523,6.095 C64.2477161,6.095 63.8156586,6.281 63.4340798,6.65333333 C63.052833,7.02566667 62.7572672,7.531 62.5470501,8.16866667 C62.3371651,8.80666667 62.2318905,9.48733333 62.2318905,10.211 C62.2318905,10.7893333 62.3604119,11.2316667 62.6171224,11.539 C62.8741651,11.8463333 63.2540835,12 63.7572096,12 C64.2241373,12 64.6445714,11.823 65.01818,11.4686667 C65.3914564,11.1146667 65.6817087,10.6186667 65.889269,9.98066667 C66.0968293,9.343 66.2007755,8.641 66.2007755,7.87566667 L66.2007755,7.87566667 Z" id="Fill-5" fill="#091F2F"></path>
                    <path d="M67.8150965,17.202 C67.3481688,17.202 66.9619406,17.142 66.6557477,17.022 L66.6557477,15.538 C66.9878442,15.6423333 67.28341,15.6943333 67.5427774,15.6943333 C68.2381874,15.6943333 68.6971447,15.1603333 68.9203135,14.093 L70.608692,6.11066667 L69.2162115,6.11066667 L69.379603,5.28266667 L70.8889814,4.689 L71.0523729,3.97033333 C71.2805232,2.93933333 71.6295566,2.20666667 72.099141,1.77166667 C72.5683933,1.337 73.2335826,1.11933333 74.0950408,1.11933333 C74.6918182,1.11933333 75.2394453,1.23133333 75.7369258,1.45533333 L75.262692,2.83 C74.8787885,2.68433333 74.5257699,2.61133333 74.2039685,2.61133333 C73.8459685,2.61133333 73.5593692,2.72333333 73.3441707,2.947 C73.1286401,3.171 72.9639202,3.53833333 72.8500111,4.04866667 L72.7098664,4.72033333 L74.4922282,4.72033333 L74.2039685,6.11066667 L72.4219388,6.11066667 L70.6867347,14.3353333 C70.4788423,15.3193333 70.1391076,16.043 69.6671985,16.5066667 C69.1952894,16.97 68.5779221,17.202 67.8150965,17.202" id="Fill-6" fill="#091F2F"></path>
                    <path d="M90.4929685,16.4503333 L83.5916716,16.4503333 L83.5916716,0.627333333 L89.7258256,0.627333333 C90.7931837,0.627333333 91.7144193,0.756 92.4888683,1.01233333 C93.2626531,1.269 93.8454824,1.616 94.236692,2.05366667 C94.9433933,2.86866667 95.2964119,3.78933333 95.2964119,4.81533333 C95.2964119,6.05266667 94.8978961,6.97333333 94.1011967,7.577 C93.830538,7.78833333 93.6422393,7.92033333 93.5372968,7.973 C93.4320223,8.026 93.2440557,8.11266667 92.973397,8.23333333 C93.950757,8.445 94.728859,8.88633333 95.3077032,9.55766667 C95.8862152,10.2293333 96.1758033,11.063 96.1758033,12.059 C96.1758033,13.1606667 95.8002022,14.134 95.0483358,14.979 C94.1762505,15.96 92.6575733,16.4503333 90.4929685,16.4503333 L90.4929685,16.4503333 Z M87.1099017,7.03366667 L88.7786865,7.03366667 C89.7560464,7.03366667 90.4813451,6.92833333 90.9552468,6.71666667 C91.4284842,6.50566667 91.6656011,6.049 91.6656011,5.34733333 C91.6656011,4.64566667 91.4474137,4.18133333 91.0113711,3.955 C90.5753284,3.72866667 89.8384063,3.61566667 88.801269,3.61566667 L87.1099017,3.61566667 L87.1099017,7.03366667 L87.1099017,7.03366667 Z M87.1099017,13.4623333 L89.5229147,13.4623333 C90.5301633,13.4623333 91.2856827,13.338 91.7894731,13.089 C92.2929314,12.84 92.5453247,12.3496667 92.5453247,11.6173333 C92.5453247,10.8856667 92.277987,10.403 91.7446401,10.1686667 C91.2102968,9.935 90.3574731,9.818 89.1848404,9.818 L87.1099017,9.818 L87.1099017,13.4623333 L87.1099017,13.4623333 Z" id="Fill-7" fill="#091F2F"></path>
                    <path d="M112.30108,14.266 C110.707017,15.8276667 108.744991,16.609 106.41467,16.609 C104.084017,16.609 102.122323,15.8276667 100.528592,14.266 C98.9348609,12.704 98.1378293,10.7613333 98.1378293,8.437 C98.1378293,6.11333333 98.9348609,4.17 100.528592,2.60833333 C102.122323,1.04633333 104.084017,0.265333333 106.41467,0.265333333 C108.744991,0.265333333 110.707017,1.04633333 112.30108,2.60833333 C113.894479,4.17 114.691178,6.11333333 114.691178,8.437 C114.691178,10.7613333 113.894479,12.704 112.30108,14.266 L112.30108,14.266 Z M111.105865,8.44833333 C111.105865,7.03733333 110.654545,5.834 109.752571,4.838 C108.850265,3.84166667 107.741395,3.344 106.425961,3.344 C105.110527,3.344 104.001657,3.84166667 103.099683,4.838 C102.197377,5.834 101.74639,7.03733333 101.74639,8.44833333 C101.74639,9.85966667 102.197377,11.0593333 103.099683,12.0476667 C104.001657,13.036 105.110527,13.5303333 106.425961,13.5303333 C107.741395,13.5303333 108.850265,13.036 109.752571,12.0476667 C110.654545,11.0593333 111.105865,9.85966667 111.105865,8.44833333 L111.105865,8.44833333 Z" id="Fill-8" fill="#091F2F"></path>
                    <path d="M121.21787,3.78533333 C120.879464,4.06466667 120.710427,4.43433333 120.710427,4.89466667 C120.710427,5.355 120.916991,5.72066667 121.330783,5.99233333 C121.743911,6.264 122.698356,6.58466667 124.194783,6.95433333 C125.690545,7.32433333 126.852219,7.879 127.679139,8.61833333 C128.505727,9.35766667 128.919519,10.437 128.919519,11.855 C128.919519,13.2736667 128.389494,14.4243333 127.329442,15.3073333 C126.269722,16.19 124.874917,16.6316667 123.146022,16.6316667 C120.650317,16.6316667 118.402024,15.7033333 116.403135,13.8473333 L118.499993,11.2666667 C120.198998,12.7606667 121.770479,13.5076667 123.21377,13.5076667 C123.86003,13.5076667 124.367473,13.3683333 124.735768,13.089 C125.104395,12.8096667 125.288709,12.4323333 125.288709,11.957 C125.288709,11.4816667 125.093104,11.1046667 124.702226,10.8253333 C124.311017,10.546 123.536568,10.2633333 122.379212,9.97633333 C120.544378,9.53866667 119.202709,8.969 118.353538,8.26733333 C117.504035,7.56566667 117.079616,6.46433333 117.079616,4.96233333 C117.079616,3.461 117.616616,2.30266667 118.691944,1.48766667 C119.766609,0.672666667 121.10861,0.265333333 122.717286,0.265333333 C123.769699,0.265333333 124.822113,0.446333333 125.874859,0.808666667 C126.926941,1.17066667 127.844191,1.684 128.626278,2.348 L126.844581,4.92833333 C125.476343,3.88733333 124.062941,3.36666667 122.604373,3.36666667 C122.018223,3.36666667 121.555944,3.50633333 121.21787,3.78533333" id="Fill-9" fill="#091F2F"></path>
                    <path d="M138.67751,3.68333333 L138.67751,16.4503333 L135.15928,16.4503333 L135.15928,3.68333333 L130.694243,3.68333333 L130.694243,0.627333333 L143.142879,0.627333333 L143.142879,3.68333333 L138.67751,3.68333333" id="Fill-10" fill="#091F2F"></path>
                    <path d="M158.564443,14.266 C156.97038,15.8276667 155.008022,16.609 152.678033,16.609 C150.34738,16.609 148.385354,15.8276667 146.791623,14.266 C145.198224,12.704 144.401193,10.7613333 144.401193,8.437 C144.401193,6.11333333 145.198224,4.17 146.791623,2.60833333 C148.385354,1.04633333 150.34738,0.265333333 152.678033,0.265333333 C155.008022,0.265333333 156.97038,1.04633333 158.564443,2.60833333 C160.157842,4.17 160.954542,6.11333333 160.954542,8.437 C160.954542,10.7613333 160.157842,12.704 158.564443,14.266 L158.564443,14.266 Z M157.368896,8.44833333 C157.368896,7.03733333 156.917909,5.834 156.015935,4.838 C155.113629,3.84166667 154.004427,3.344 152.688993,3.344 C151.373558,3.344 150.26502,3.84166667 149.363046,4.838 C148.46074,5.834 148.009421,7.03733333 148.009421,8.44833333 C148.009421,9.85966667 148.46074,11.0593333 149.363046,12.0476667 C150.26502,13.036 151.373558,13.5303333 152.688993,13.5303333 C154.004427,13.5303333 155.113629,13.036 156.015935,12.0476667 C156.917909,11.0593333 157.368896,9.85966667 157.368896,8.44833333 L157.368896,8.44833333 Z" id="Fill-11" fill="#091F2F"></path>
                    <path d="M175.006872,0.627333333 L178.525102,0.627333333 L178.525102,16.4503333 L175.006872,16.4503333 L167.496842,6.53566667 L167.496842,16.4503333 L163.978612,16.4503333 L163.978612,0.627333333 L167.271349,0.627333333 L175.006872,10.8136667 L175.006872,0.627333333" id="Fill-12" fill="#091F2F"></path>
                    <path d="M83,20 L179,20 L179,23.5 L83,23.5 L83,20 Z" id="Fill-13" fill="#FB4D42"></path>
                </g>
            </g>
        </g>
    </g>
</svg>

<svg width="179" height="40" xmlns="http://www.w3.org/2000/svg">
 <!-- Generator: Sketch 3.3.3 (12072) - http://www.bohemiancoding.com/sketch -->
 <title>logo</title>
 <desc>Created with Sketch.</desc>

 <g>
  <title>background</title>
  <rect fill="none" id="canvas_background" height="42" width="181" y="-1" x="-1"/>
 </g>
 <g>
  <title>Layer 1</title>
  <g fill-rule="evenodd" fill="none" id="Page-1">
   <g stroke="null" id="TOPIC-WINTER">
    <g stroke="null" id="TOP-NAV">
     <g stroke="null" id="logo">
      <path stroke="null" fill="#091F2F" id="Fill-1" d="m8.51429,13.32667c1.72923,0 3.1423,-0.68667 4.24021,-2.06l2.25526,2.33133c-1.78933,2.02267 -3.89814,3.03367 -6.3261,3.03367c-2.42829,0 -4.42818,-0.77 -5.99899,-2.309c-1.57115,-1.53934 -2.35656,-3.48234 -2.35656,-5.829c0,-2.34634 0.80035,-4.30467 2.40172,-5.87434c1.60137,-1.56933 3.55941,-2.354 5.87479,-2.354c2.58603,0 4.75097,0.98867 6.49547,2.96534l-2.18818,2.49c-1.11219,-1.38834 -2.4957,-2.08234 -4.14921,-2.08234c-1.32307,0 -2.45486,0.43367 -3.39403,1.30134c-0.93983,0.868 -1.40942,2.03733 -1.40942,3.50866c0,1.47134 0.44302,2.65234 1.33038,3.54267c0.88703,0.89067 1.96203,1.33567 3.22466,1.33567"/>
      <path stroke="null" fill="#091F2F" id="Fill-2" d="m17.68912,0.62733l3.51823,0l0,15.823l-3.51823,0l0,-15.823z"/>
      <path stroke="null" fill="#091F2F" id="Fill-3" d="m31.53588,3.68333l0,12.767l-3.51823,0l0,-12.767l-4.46537,0l0,-3.056l12.44897,0l0,3.056l-4.46537,0"/>
      <path stroke="null" fill="#091F2F" id="Fill-4" d="m46.33211,16.45033l-3.51823,0l0,-6.24766l-5.45768,-9.57534l3.81148,0l3.40531,5.88567l3.40565,-5.88567l3.81114,0l-5.45767,9.57534l0,6.24766"/>
      <path stroke="null" fill="#091F2F" id="Fill-5" d="m68.04491,7.95367c0,1.052 -0.1893,2.009 -0.56789,2.87066c-0.37859,0.862 -0.89898,1.523 -1.56052,1.984c-0.6612,0.46067 -1.42237,0.69134 -2.28383,0.69134c-0.99595,0 -1.78701,-0.298 -2.37316,-0.89467c-0.58648,-0.596 -0.87972,-1.407 -0.87972,-2.433c0,-1.036 0.18564,-1.98633 0.55659,-2.851c0.37095,-0.864 0.89102,-1.537 1.56019,-2.019c0.66918,-0.48167 1.4423,-0.72233 2.31936,-0.72233c1.01124,0 1.80229,0.302 2.37316,0.906c0.57088,0.604 0.85582,1.42666 0.85582,2.468l0,0zm-1.84413,-0.078c0,-0.557 -0.1272,-0.993 -0.38158,-1.30834c-0.25372,-0.315 -0.61704,-0.47233 -1.08895,-0.47233c-0.48253,0 -0.91459,0.186 -1.29617,0.55833c-0.38125,0.37234 -0.67681,0.87767 -0.88703,1.51534c-0.20988,0.638 -0.31516,1.31866 -0.31516,2.04233c0,0.57833 0.12852,1.02067 0.38523,1.328c0.25705,0.30733 0.63696,0.461 1.14009,0.461c0.46693,0 0.88736,-0.177 1.26097,-0.53133c0.37328,-0.354 0.66353,-0.85 0.87109,-1.488c0.20756,-0.63767 0.31151,-1.33967 0.31151,-2.105l0,0z"/>
      <path stroke="null" fill="#091F2F" id="Fill-6" d="m67.8151,17.202c-0.46693,0 -0.85316,-0.06 -1.15935,-0.18l0,-1.484c0.33209,0.10433 0.62766,0.15633 0.88703,0.15633c0.69541,0 1.15436,-0.534 1.37753,-1.60133l1.68838,-7.98233l-1.39248,0l0.16339,-0.828l1.50938,-0.59367l0.16339,-0.71867c0.22815,-1.031 0.57719,-1.76366 1.04677,-2.19866c0.46925,-0.43467 1.13444,-0.65234 1.9959,-0.65234c0.59678,0 1.14441,0.112 1.64189,0.336l-0.47424,1.37467c-0.3839,-0.14567 -0.73692,-0.21867 -1.05872,-0.21867c-0.358,0 -0.6446,0.112 -0.8598,0.33567c-0.21553,0.224 -0.38025,0.59133 -0.49416,1.10167l-0.14014,0.67166l1.78236,0l-0.28826,1.39034l-1.78203,0l-1.73521,8.22466c-0.20789,0.984 -0.54762,1.70767 -1.01953,2.17134c-0.47191,0.46333 -1.08928,0.69533 -1.8521,0.69533"/>
      <path stroke="null" fill="#091F2F" id="Fill-7" d="m90.49297,16.45033l-6.9013,0l0,-15.823l6.13416,0c1.06735,0 1.98859,0.12867 2.76304,0.385c0.77378,0.25667 1.35661,0.60367 1.74782,1.04134c0.7067,0.815 1.05972,1.73566 1.05972,2.76166c0,1.23734 -0.39851,2.158 -1.19521,2.76167c-0.27066,0.21133 -0.45896,0.34333 -0.5639,0.396c-0.10528,0.053 -0.29324,0.13967 -0.5639,0.26033c0.97736,0.21167 1.75546,0.653 2.3343,1.32434c0.57852,0.67166 0.8681,1.50533 0.8681,2.50133c0,1.10167 -0.3756,2.075 -1.12746,2.92c-0.87209,0.981 -2.39077,1.47133 -4.55537,1.47133l0,0zm-3.38307,-9.41666l1.66879,0c0.97736,0 1.70266,-0.10534 2.17656,-0.317c0.47323,-0.211 0.71035,-0.66767 0.71035,-1.36934c0,-0.70166 -0.21819,-1.166 -0.65423,-1.39233c-0.43604,-0.22633 -1.17296,-0.33933 -2.2101,-0.33933l-1.69137,0l0,3.418l0,0zm0,6.42866l2.41301,0c1.00725,0 1.76277,-0.12433 2.26656,-0.37333c0.50346,-0.249 0.75585,-0.73933 0.75585,-1.47167c0,-0.73166 -0.26733,-1.21433 -0.80068,-1.44866c-0.53434,-0.23367 -1.38717,-0.35067 -2.5598,-0.35067l-2.07494,0l0,3.64433l0,0z"/>
      <path stroke="null" fill="#091F2F" id="Fill-8" d="m112.30108,14.266c-1.59406,1.56167 -3.55609,2.343 -5.88641,2.343c-2.33065,0 -4.29235,-0.78133 -5.88608,-2.343c-1.59373,-1.562 -2.39076,-3.50467 -2.39076,-5.829c0,-2.32367 0.79703,-4.267 2.39076,-5.82867c1.59373,-1.562 3.55543,-2.343 5.88608,-2.343c2.33032,0 4.29235,0.781 5.88641,2.343c1.5934,1.56167 2.3901,3.505 2.3901,5.82867c0,2.32433 -0.7967,4.267 -2.3901,5.829l0,0zm-1.19522,-5.81767c0,-1.411 -0.45132,-2.61433 -1.35329,-3.61033c-0.90231,-0.99633 -2.01118,-1.494 -3.32661,-1.494c-1.31543,0 -2.4243,0.49767 -3.32628,1.494c-0.9023,0.996 -1.35329,2.19933 -1.35329,3.61033c0,1.41134 0.45099,2.611 1.35329,3.59934c0.90198,0.98833 2.01085,1.48266 3.32628,1.48266c1.31543,0 2.4243,-0.49433 3.32661,-1.48266c0.90197,-0.98834 1.35329,-2.188 1.35329,-3.59934l0,0z"/>
      <path stroke="null" fill="#091F2F" id="Fill-9" d="m121.21787,3.78533c-0.33841,0.27934 -0.50744,0.649 -0.50744,1.10934c0,0.46033 0.20656,0.826 0.62035,1.09766c0.41313,0.27167 1.36758,0.59234 2.864,0.962c1.49577,0.37 2.65744,0.92467 3.48436,1.664c0.82659,0.73934 1.24038,1.81867 1.24038,3.23667c0,1.41867 -0.53003,2.56933 -1.59008,3.45233c-1.05972,0.88267 -2.45452,1.32434 -4.18342,1.32434c-2.4957,0 -4.744,-0.92834 -6.74288,-2.78434l2.09685,-2.58066c1.69901,1.494 3.27049,2.241 4.71378,2.241c0.64626,0 1.1537,-0.13934 1.522,-0.41867c0.36862,-0.27933 0.55294,-0.65667 0.55294,-1.132c0,-0.47533 -0.19561,-0.85233 -0.58648,-1.13167c-0.39121,-0.27933 -1.16566,-0.562 -2.32302,-0.849c-1.83483,-0.43766 -3.1765,-1.00733 -4.02567,-1.709c-0.8495,-0.70166 -1.27392,-1.803 -1.27392,-3.305c0,-1.50133 0.537,-2.65966 1.61232,-3.47466c1.07467,-0.815 2.41667,-1.22234 4.02535,-1.22234c1.05241,0 2.10482,0.181 3.15757,0.54334c1.05208,0.362 1.96933,0.87533 2.75142,1.53933l-1.7817,2.58033c-1.36824,-1.041 -2.78164,-1.56166 -4.24021,-1.56166c-0.58615,0 -1.04843,0.13966 -1.3865,0.41866"/>
      <path stroke="null" fill="#091F2F" id="Fill-10" d="m138.67751,3.68333l0,12.767l-3.51823,0l0,-12.767l-4.46504,0l0,-3.056l12.44864,0l0,3.056l-4.46537,0"/>
      <path stroke="null" fill="#091F2F" id="Fill-11" d="m158.56444,14.266c-1.59406,1.56167 -3.55642,2.343 -5.88641,2.343c-2.33065,0 -4.29268,-0.78133 -5.88641,-2.343c-1.5934,-1.562 -2.39043,-3.50467 -2.39043,-5.829c0,-2.32367 0.79703,-4.267 2.39043,-5.82867c1.59373,-1.562 3.55576,-2.343 5.88641,-2.343c2.32999,0 4.29235,0.781 5.88641,2.343c1.5934,1.56167 2.3901,3.505 2.3901,5.82867c0,2.32433 -0.7967,4.267 -2.3901,5.829l0,0zm-1.19554,-5.81767c0,-1.411 -0.45099,-2.61433 -1.35296,-3.61033c-0.90231,-0.99633 -2.01151,-1.494 -3.32695,-1.494c-1.31543,0 -2.42397,0.49767 -3.32594,1.494c-0.90231,0.996 -1.35363,2.19933 -1.35363,3.61033c0,1.41134 0.45132,2.611 1.35363,3.59934c0.90197,0.98833 2.01051,1.48266 3.32594,1.48266c1.31544,0 2.42464,-0.49433 3.32695,-1.48266c0.90197,-0.98834 1.35296,-2.188 1.35296,-3.59934l0,0z"/>
      <path stroke="null" fill="#091F2F" id="Fill-12" d="m175.00687,0.62733l3.51823,0l0,15.823l-3.51823,0l-7.51003,-9.91466l0,9.91466l-3.51823,0l0,-15.823l3.29274,0l7.73552,10.18634l0,-10.18634"/>
      <path stroke="null" fill="#FB4D42" id="Fill-13" d="m83,20l96,0l0,3.5l-96,0l0,-3.5z"/>
     </g>
    </g>
   </g>
  </g>
  <text style="cursor: move;" font-weight="normal" font-style="italic" stroke="#288be4" transform="matrix(0.6543308081015198,0,0,0.5714285969734191,52.218152333493784,19.99999892711639) " xml:space="preserve" text-anchor="start" font-family="Arvo, sans-serif" font-size="24" id="svg_1" y="25.5" x="84.311068" stroke-width="0" fill="#000">open data</text>
 </g>
</svg>
